X:1
T:Title
%%score { 1 | 2 }
L:1/8
M:4/4
K:D
V:1 treble nm="Grand Piano"
V:2 bass 
V:1
 z4 z2[Q:1/4=100] [FA]>[EG] | F2 F2 F2 A2 | [CA][EG][EG][DF] [EG]2 [CE]>[DF] | %3
 [EG]2 [EG]2 [EG]2 [CGB]2 | [GB][FA][FA][=F^G] [^FA]2 [DF]>[E=G] | [FA]2 [Fd]2 [Fd]2 [FA]2 | %6
 [Ac]BB^A B2 G>B | A3 A [A,DF]2[K:bass] [G,CE]2 |[M:3/4] [F,D]6 |[M:1/4][K:treble] [DAd]>[DAc] | %10
[M:4/4] B2 B>B B2 [Gc]2 | [Fd][FA] [FA]>[FA] [FA]2 [GB]>[FA] | [CEA]2 [CEG]2 [A,CE]2 [CEG]2 | %13
 [DGB]2 [DFA]2 [A,FA][A,EG][A,DF][A,EG] | [FA]2 [FA]2 [GB]2 [Gc]2 | [Fe]2 [Fd]2 [Fd]2 [D=Fc][DFB] | %16
 [DFA]4 [A,EG]2[K:bass] [G,CE]2 |[M:3/4] [F,D]6 |] %18
V:2
 z4 z2 [D,D]>[D,D] | [D,A,D]2 [D,A,D]2 [D,A,D]2 [D,F,D]2 | %2
 [A,,A,][A,,A,][A,,A,][A,,A,] [A,,A,]2 [A,,A,]>[A,,A,] | [A,,A,]2 [A,,A,]2 [A,,A,]2 A,,2 | %4
 [D,D][D,D][D,D][D,D] [D,D]2 [D,A,]>[D,A,] | [D,D]2 [D,A,]2 [D,A,]2 [D,D]2 | %6
 [G,D][G,DG][G,DG][G,CG] [G,DG]2 [G,B,]>[G,DG] | [A,DF]3 [A,DF][K:bass] A,,2 A,,2 |[M:3/4] D,6 | %9
[M:1/4] F,>F, |[M:4/4][K:treble] [G,DG]2 [G,DG]>[G,DG] [G,DG]2[K:bass] [E,A,]2 | %11
 [D,A,][D,D] [D,D]>[D,D] [D,D]2 [D,D]>[D,D] | A,,2 A,,2 A,,2 A,,2 | D,2 D,2 D,D,D,D, | %14
 [D,D]2 [D,D]2 [G,D]2 [E,A,]2 | [D,A,]2 [D,A,]2 [D,A,]2 ^G,G, | A,4 A,,2 A,,2 |[M:3/4] D,6 |] %18

